X:1
T:When That I Was a Little Tiny Boy
M:2/4
L:1/16
K:G
 B2 BB G2G2| AB AG F2 GA| B4 G3 G|A-B AG F2^D2| E2F2 G2A2|B-AG-F E2 ^DD|\
 E2F2 G2A2|B-AG-F E2 GA| B4 G3 G|A-B AG F2 ^DD| E2F2 G2A2|B-AG-F E4|\
